X:36
T:Salt River Road
C:Ed Yother
C:c.2012
C:http://edyother.com
M:6/8
R:jig
K:Dmix
A,DA cBA | GFD EFG | A,DA cBA | GFE D2D |
A,DA cBA | GFD EFG | cBc dcB | AGE D2D :|
|: dcd ecA | dcd ecA | cBc dcB | GBc GBc |
[1 dcd ecA | dcd ecA | cBc dcB | AGE D2D :|
[2 dcd ecA | gfg agf | def gde | ceB A3 |]

